public/favicon.svg

<svg height="1000" width="1000" xmlns="http://www.w3.org/2000/svg" xmlns:xlink="http://www.w3.org/1999/xlink"><clipPath id="a"><rect height="1000" rx="500" width="1000"/></clipPath><g clip-path="url(#a)"><path d="m0 0h1000v1000h-1000z" fill="#fff"/><svg height="62" transform="matrix(2.90909091 0 0 2.90909091 100 409.818182)" version="1.1" width="275" xmlns="http://www.w3.org/2000/svg" xmlns:xlink="http://www.w3.org/1999/xlink"><svg fill="none" height="62" viewBox="0 0 275 62" width="275" xmlns="http://www.w3.org/2000/svg"><path d="m31.0971 11.5866 5.4737 8.6502-25.7423 15.0387 25.7423 14.761-5.672 8.928-30.8988-19.2051v-8.8884zm54.4286 46.1478c-1.6395 1.0581-3.6227 1.9576-5.9497 2.6982-2.327.7407-4.9449 1.1111-7.8536 1.1111-5.5002 0-9.5856-1.402-12.2564-4.2061-2.6707-2.8305-4.0061-6.6662-4.0061-11.5072v-19.1258h-8.8452v-8.6502h8.8452v-9.1264l12.534-1.50784v10.63424h13.5653l-1.2296 8.6502h-12.3357v19.1258c0 2.0898.476 3.5844 1.428 4.4838.9519.8995 2.4724 1.3492 4.5614 1.3492 1.4808 0 2.8294-.172 4.0458-.5159 1.2428-.3703 2.3534-.8333 3.3318-1.3888zm36.4613-57.7344c3.067 0 5.777.251307 8.131.753923 2.353.476157 4.456 1.111037 6.307 1.904637l-3.451 8.17404c-1.455-.5555-2.949-.95228-4.482-1.19036-1.534-.26453-3.055-.3968-4.562-.3968-2.485 0-4.27.44971-5.355 1.34916-1.057.8994-1.586 2.394-1.586 4.4838v5.6346h13.724l-1.388 8.6899h-12.336v30.7917h-12.455v-30.7917h-8.8451v-8.6899h8.8451v-6.1108c0-2.7776.661-5.26417 1.983-7.4598 1.323-2.19562 3.279-3.92832 5.871-5.19808 2.591-1.296213 5.791-1.94432 9.599-1.94432zm56.213 48.0525c0 1.5872.211 2.7379.634 3.4521.45.7143 1.164 1.2566 2.142 1.6269l-2.578 8.2535c-2.486-.2381-4.588-.7804-6.307-1.6269-1.692-.873-3.027-2.1824-4.006-3.9283-1.613 1.9311-3.675 3.3728-6.187 4.3251-2.513.9259-5.078 1.3888-7.695 1.3888-4.337 0-7.801-1.2301-10.393-3.6903-2.565-2.4866-3.847-5.6742-3.847-9.5628 0-4.5765 1.785-8.108 5.355-10.5946 3.596-2.4866 8.647-3.7299 15.152-3.7299h5.672v-1.5872c0-2.1956-.714-3.8225-2.142-4.8807-1.402-1.0581-3.464-1.5872-6.188-1.5872-1.348 0-3.081.1984-5.196.5952-2.115.3704-4.231.9127-6.346 1.6269l-2.896-8.3328c2.724-1.0317 5.553-1.812 8.488-2.3411 2.962-.5291 5.606-.7936 7.933-.7936 6.267 0 10.895 1.283 13.883 3.849 3.014 2.5395 4.522 6.2165 4.522 11.031zm-19.674 4.5235c1.349 0 2.763-.3968 4.244-1.1904 1.481-.82 2.605-1.9708 3.372-3.4522v-6.8249h-3.094c-3.491 0-6.056.5423-7.695 1.6269-1.64 1.0581-2.459 2.6188-2.459 4.6822 0 1.6137.489 2.8834 1.467 3.8093 1.005.8994 2.393 1.3491 4.165 1.3491zm41.181.119c0-1.6136.397-3.0818 1.19-4.4044.793-1.3492 1.864-2.4205 3.213-3.2141 1.348-.8201 2.829-1.2301 4.442-1.2301 1.64 0 3.121.41 4.443 1.2301 1.348.7936 2.419 1.8649 3.213 3.2141.793 1.3226 1.19 2.7908 1.19 4.4044 0 1.5872-.397 3.0554-1.19 4.4045-.794 1.3491-1.865 2.4205-3.213 3.2141-1.322.8201-2.803 1.2301-4.443 1.2301-1.613 0-3.094-.41-4.442-1.2301-1.349-.7936-2.42-1.865-3.213-3.2141s-1.19-2.8173-1.19-4.4045zm43.679-41.1084 31.018 19.2051v8.9677l-30.899 19.2051-5.672-8.5312 25.782-15.1578-25.782-14.6816z" fill="#ff79c6"/></svg></svg></g></svg>

<svg xmlns="http://www.w3.org/2000/svg" version="1.1" xmlns:xlink="http://www.w3.org/1999/xlink" xmlns:svgjs="http://svgjs.dev/svgjs" width="1000" height="1000"><g clip-path="url(#SvgjsClipPath1197)"><rect width="1000" height="1000" fill="#ffffff"></rect><g transform="matrix(2.909090909090909,0,0,2.909090909090909,100,409.8181818181818)"><svg xmlns="http://www.w3.org/2000/svg" version="1.1" xmlns:xlink="http://www.w3.org/1999/xlink" xmlns:svgjs="http://svgjs.dev/svgjs" width="275" height="62"><svg width="275" height="62" viewBox="0 0 275 62" fill="none" xmlns="http://www.w3.org/2000/svg">
<path d="M31.0971 11.5866L36.5708 20.2368L10.8285 35.2755L36.5708 50.0365L30.8988 58.9645L0 39.7594V30.871L31.0971 11.5866ZM85.5257 57.7344C83.8862 58.7925 81.903 59.692 79.576 60.4326C77.249 61.1733 74.6311 61.5437 71.7224 61.5437C66.2222 61.5437 62.1368 60.1417 59.466 57.3376C56.7953 54.5071 55.4599 50.6714 55.4599 45.8304V26.7046H46.6147V18.0544H55.4599V8.928L67.9939 7.42016V18.0544H81.5592L80.3296 26.7046H67.9939V45.8304C67.9939 47.9202 68.4699 49.4148 69.4219 50.3142C70.3738 51.2137 71.8943 51.6634 73.9833 51.6634C75.4641 51.6634 76.8127 51.4914 78.0291 51.1475C79.2719 50.7772 80.3825 50.3142 81.3609 49.7587L85.5257 57.7344ZM121.987 0C125.054 0 127.764 0.251307 130.118 0.753923C132.471 1.23008 134.574 1.86496 136.425 2.65856L132.974 10.8326C131.519 10.2771 130.025 9.88032 128.492 9.64224C126.958 9.37771 125.437 9.24544 123.93 9.24544C121.445 9.24544 119.66 9.69515 118.575 10.5946C117.518 11.494 116.989 12.9886 116.989 15.0784V20.713H130.713L129.325 29.4029H116.989V60.1946H104.534V29.4029H95.6889V20.713H104.534V14.6022C104.534 11.8246 105.195 9.33803 106.517 7.1424C107.84 4.94678 109.796 3.21408 112.388 1.94432C114.979 0.648107 118.179 0 121.987 0ZM178.2 48.0525C178.2 49.6397 178.411 50.7904 178.834 51.5046C179.284 52.2189 179.998 52.7612 180.976 53.1315L178.398 61.385C175.912 61.1469 173.81 60.6046 172.091 59.7581C170.399 58.8851 169.064 57.5757 168.085 55.8298C166.472 57.7609 164.41 59.2026 161.898 60.1549C159.385 61.0808 156.82 61.5437 154.203 61.5437C149.866 61.5437 146.402 60.3136 143.81 57.8534C141.245 55.3668 139.963 52.1792 139.963 48.2906C139.963 43.7141 141.748 40.1826 145.318 37.696C148.914 35.2094 153.965 33.9661 160.47 33.9661H166.142V32.3789C166.142 30.1833 165.428 28.5564 164 27.4982C162.598 26.4401 160.536 25.911 157.812 25.911C156.464 25.911 154.731 26.1094 152.616 26.5062C150.501 26.8766 148.385 27.4189 146.27 28.1331L143.374 19.8003C146.098 18.7686 148.927 17.9883 151.862 17.4592C154.824 16.9301 157.468 16.6656 159.795 16.6656C166.062 16.6656 170.69 17.9486 173.678 20.5146C176.692 23.0541 178.2 26.7311 178.2 31.5456V48.0525ZM158.526 52.576C159.875 52.576 161.289 52.1792 162.77 51.3856C164.251 50.5656 165.375 49.4148 166.142 47.9334V41.1085H163.048C159.557 41.1085 156.992 41.6508 155.353 42.7354C153.713 43.7935 152.894 45.3542 152.894 47.4176C152.894 49.0313 153.383 50.301 154.361 51.2269C155.366 52.1263 156.754 52.576 158.526 52.576ZM199.707 52.695C199.707 51.0814 200.104 49.6132 200.897 48.2906C201.69 46.9414 202.761 45.8701 204.11 45.0765C205.458 44.2564 206.939 43.8464 208.552 43.8464C210.192 43.8464 211.673 44.2564 212.995 45.0765C214.343 45.8701 215.414 46.9414 216.208 48.2906C217.001 49.6132 217.398 51.0814 217.398 52.695C217.398 54.2822 217.001 55.7504 216.208 57.0995C215.414 58.4486 214.343 59.52 212.995 60.3136C211.673 61.1337 210.192 61.5437 208.552 61.5437C206.939 61.5437 205.458 61.1337 204.11 60.3136C202.761 59.52 201.69 58.4486 200.897 57.0995C200.104 55.7504 199.707 54.2822 199.707 52.695ZM243.386 11.5866L274.404 30.7917V39.7594L243.505 58.9645L237.833 50.4333L263.615 35.2755L237.833 20.5939L243.386 11.5866Z" fill="#FF79C6"></path>
</svg></svg></g></g><defs><clipPath id="SvgjsClipPath1197"><rect width="1000" height="1000" x="0" y="0" rx="500" ry="500"></rect></clipPath></defs></svg>
